flaticon/household/window-5.svg

<svg xmlns="http://www.w3.org/2000/svg" width="32" height="32" viewBox="0 0 24 24">
    <path d="M 23.601562 3.601562 L 23.601562 2.398438 L 24 2.398438 L 24 0 L 0 0 L 0 2.398438 L 0.398438 2.398438 L 0.398438 3.601562 L 0.800781 3.601562 L 0.800781 20.402344 L 0 20.398438 L 0 22.800781 L 0.398438 22.800781 L 0.398438 24 L 23.601562 24 L 23.601562 22.800781 L 24 22.800781 L 24 20.398438 L 23.199219 20.398438 L 23.199219 3.601562 Z M 22.800781 2.800781 L 21.707031 2.800781 L 21.007812 2.398438 L 22.800781 2.398438 Z M 2.800781 20.453125 L 2.800781 3.433594 L 3.601562 2.976562 L 4.800781 2.289062 L 4.800781 20.738281 L 4.039062 20.628906 Z M 6.398438 20.800781 L 5.601562 20.800781 L 5.601562 2 L 6.398438 2 Z M 16.800781 2.800781 L 7.199219 2.800781 L 7.199219 2.398438 L 16.800781 2.398438 Z M 16.800781 4.398438 L 7.199219 4.398438 L 7.199219 3.601562 L 16.800781 3.601562 Z M 16.800781 5.199219 L 16.800781 18.800781 L 7.199219 18.800781 L 7.199219 5.199219 Z M 7.199219 19.601562 L 16.800781 19.601562 L 16.800781 20.398438 L 7.199219 20.398438 Z M 17.601562 20.398438 L 17.601562 2 L 18.398438 2 L 18.398438 20.800781 L 17.601562 20.800781 Z M 21.199219 20.453125 L 19.199219 20.738281 L 19.199219 2.289062 L 21.199219 3.433594 Z M 0.800781 0.800781 L 23.199219 0.800781 L 23.199219 1.601562 L 19.605469 1.601562 L 18.90625 1.199219 L 16.800781 1.199219 L 16.800781 1.601562 L 7.199219 1.601562 L 7.199219 1.199219 L 5.09375 1.199219 L 4.394531 1.601562 L 0.800781 1.601562 Z M 2.992188 2.398438 L 2.292969 2.800781 L 1.199219 2.800781 L 1.199219 2.398438 Z M 2 3.601562 L 2 20.398438 L 1.601562 20.398438 L 1.601562 3.601562 Z M 22.800781 23.199219 L 1.199219 23.199219 L 1.199219 22.800781 L 22.800781 22.800781 Z M 23.199219 22 L 0.800781 22 L 0.800781 21.199219 L 2.371094 21.199219 L 5.144531 21.597656 C 5.160156 21.597656 5.179688 21.601562 5.199219 21.601562 L 6.800781 21.601562 C 6.800781 21.601562 6.800781 21.597656 6.804688 21.597656 L 7.199219 21.601562 L 7.199219 21.199219 L 16.800781 21.199219 L 16.800781 21.601562 L 18.800781 21.601562 C 18.820312 21.601562 18.839844 21.597656 18.855469 21.597656 L 21.628906 21.199219 L 23.199219 21.199219 Z M 22.398438 20.398438 L 22 20.398438 L 22 3.601562 L 22.398438 3.601562 Z M 22.398438 20.398438"/>
    <path d="M12 8.800781L12.632812 8.800781 13.601562 9.765625 13.601562 10.398438C13.601562 10.621094 13.777344 10.800781 14 10.800781 14.222656 10.800781 14.398438 10.621094 14.398438 10.398438L14.398438 9.765625 15.367188 8.800781 16 8.800781C16.222656 8.800781 16.398438 8.621094 16.398438 8.398438 16.398438 8.179688 16.222656 8 16 8L15.367188 8 14.398438 7.035156 14.398438 6.398438C14.398438 6.179688 14.222656 6 14 6 13.777344 6 13.601562 6.179688 13.601562 6.398438L13.601562 7.035156 12.632812 8 12 8C11.777344 8 11.601562 8.179688 11.601562 8.398438 11.601562 8.621094 11.777344 8.800781 12 8.800781zM14 7.765625L14.632812 8.398438 14 9.035156 13.367188 8.398438zM15.601562 16.898438C15.601562 17.121094 15.421875 17.300781 15.199219 17.300781 14.980469 17.300781 14.800781 17.121094 14.800781 16.898438 14.800781 16.679688 14.980469 16.5 15.199219 16.5 15.421875 16.5 15.601562 16.679688 15.601562 16.898438zM9.324219 14.648438C9.324219 14.871094 9.144531 15.050781 8.925781 15.050781 8.703125 15.050781 8.523438 14.871094 8.523438 14.648438 8.523438 14.429688 8.703125 14.25 8.925781 14.25 9.144531 14.25 9.324219 14.429688 9.324219 14.648438zM13.398438 12.898438C13.398438 13.121094 13.222656 13.300781 13 13.300781 12.777344 13.300781 12.601562 13.121094 12.601562 12.898438 12.601562 12.679688 12.777344 12.5 13 12.5 13.222656 12.5 13.398438 12.679688 13.398438 12.898438zM9.726562 8.398438C9.726562 8.621094 9.546875 8.800781 9.324219 8.800781 9.105469 8.800781 8.925781 8.621094 8.925781 8.398438 8.925781 8.179688 9.105469 8 9.324219 8 9.546875 8 9.726562 8.179688 9.726562 8.398438zM9.726562 8.398438"/>
</svg>

<svg xmlns="http://www.w3.org/2000/svg" width="32" height="32" viewBox="0 0 24 24">
    <path d="M23.602 3.602V2.398H24V0H0v2.398h.398v1.204h.403v16.8L0 20.398v2.403h.398V24h23.204v-1.2H24v-2.402h-.8V3.602zM22.8 2.8h-1.094l-.7-.403h1.794zm-20 17.652V3.433l.8-.456 1.2-.688v18.45l-.762-.11zm3.597.348h-.796V2h.796zm10.403-18H7.199v-.403h9.602zm0 1.597H7.199v-.796h9.602zm0 .801v13.602H7.199V5.199zM7.199 19.602h9.602v.796H7.199zm10.403.796V2h.796v18.8h-.796zm3.597.055l-2 .285V2.29l2 1.145zM.801.801h22.398v.8h-3.594l-.699-.402h-2.105v.403H7.199v-.403H5.094l-.7.403H.802zm2.191 1.597l-.699.403H1.199v-.403zM2 3.602v16.796h-.398V3.602zm20.8 19.597H1.2v-.398h21.6zM23.2 22H.8v-.8h1.571l2.774.398c.015 0 .035.004.054.004h1.602s0-.004.004-.004l.394.004v-.403h9.602v.403h2c.02 0 .039-.004.054-.004l2.774-.399h1.57zm-.802-1.602H22V3.602h.398zm0 0"/>
    <path d="M12 8.8h.633l.969.966v.632a.398.398 0 1 0 .796 0v-.632l.97-.965H16c.223 0 .398-.18.398-.403A.398.398 0 0 0 16 8h-.633l-.969-.965v-.637a.398.398 0 1 0-.796 0v.637l-.97.965H12a.398.398 0 0 0-.398.398c0 .223.175.403.398.403zm2-1.034l.633.632-.633.637-.633-.637zm0 0M15.602 16.898a.401.401 0 1 1 0 0zm0 0M9.324 14.648a.401.401 0 1 1-.802.003.401.401 0 0 1 .802-.003zm0 0M13.398 12.898a.398.398 0 1 1-.796 0 .398.398 0 1 1 .796 0zm0 0M9.727 8.398a.401.401 0 1 1 0 0zm0 0"/>
</svg>
